assets/images/volume-high.svg

<svg xmlns="http://www.w3.org/2000/svg" xmlns:xlink="http://www.w3.org/1999/xlink" id="Layer_1" x="0" y="0" version="1.1" viewBox="0 0 20 20" style="enable-background:new 0 0 20 20" xml:space="preserve"><path d="M1 7C1 6.44772 1.44772 6 2 6H5L9.35982 2.36682C10.0111 1.82405 11 2.2872 11 3.13504V16.865C11 17.7128 10.0111 18.176 9.35982 17.6332L5 14H2C1.44772 14 1 13.5523 1 13V7Z"/><path d="M12.9411 17.2444C13.0126 17.5112 13.2874 17.671 13.5492 17.583C15.053 17.0775 16.3765 16.1347 17.3468 14.8701C18.4189 13.4729 19 11.7611 19 10C19 8.23893 18.4189 6.52706 17.3468 5.12991C16.3765 3.86531 15.053 2.92251 13.5492 2.417C13.2874 2.32902 13.0126 2.48882 12.9411 2.75556L12.6823 3.72148C12.6109 3.98822 12.7701 4.26039 13.0299 4.35381C14.109 4.74173 15.0579 5.43222 15.7601 6.34743C16.5642 7.3953 17 8.67919 17 10C17 11.3208 16.5642 12.6047 15.7601 13.6526C15.0579 14.5678 14.109 15.2583 13.0299 15.6462C12.7701 15.7396 12.6109 16.0118 12.6823 16.2785L12.9411 17.2444Z"/><path d="M12.75 13.0311C12.8881 13.2702 13.1962 13.3545 13.4163 13.1877C13.8399 12.8666 14.1967 12.4632 14.4641 12C14.8152 11.3919 15 10.7021 15 10C15 9.29785 14.8152 8.60808 14.4641 8C14.1967 7.53677 13.8399 7.13338 13.4163 6.81228C13.1962 6.64547 12.8881 6.72976 12.75 6.96891L12.25 7.83494C12.1119 8.07408 12.1999 8.37626 12.3974 8.5692C12.5276 8.69631 12.6403 8.84111 12.7321 9C12.9076 9.30404 13 9.64893 13 10C13 10.3511 12.9076 10.696 12.7321 11C12.6403 11.1589 12.5276 11.3037 12.3974 11.4308C12.1999 11.6237 12.1119 11.9259 12.25 12.1651L12.75 13.0311Z"/></svg>

<svg xmlns="http://www.w3.org/2000/svg" xml:space="preserve" viewBox="0 0 20 20"><path d="M1 7a1 1 0 0 1 1-1h3l4.36-3.633a1 1 0 0 1 1.64.768v13.73a1 1 0 0 1-1.64.768L5 14H2a1 1 0 0 1-1-1zM12.941 17.244a.477.477 0 0 0 .608.339 8 8 0 0 0 0-15.166.477.477 0 0 0-.608.339l-.259.965a.534.534 0 0 0 .348.633 6 6 0 0 1 0 11.292.534.534 0 0 0-.348.633z"/><path d="M12.75 13.031c.138.24.446.323.666.157a4 4 0 0 0 0-6.376c-.22-.167-.528-.082-.666.157l-.5.866c-.138.24-.05.541.147.734a2 2 0 0 1 0 2.862c-.197.193-.285.495-.147.734z"/></svg>
